packages/fxa-payments-server/src/images/discover.svg

<svg width="39" height="24" viewBox="0 0 39 24" fill="none" xmlns="http://www.w3.org/2000/svg">
<g clip-path="url(#clip0)">
<path fill-rule="evenodd" clip-rule="evenodd" d="M3.5195 0C2.06198 0 0.879883 1.18224 0.879883 2.64019V21.4078C0.879883 22.866 2.06159 24.048 3.5195 24.048H35.6803C37.1378 24.048 38.3199 22.8658 38.3199 21.4078V2.64019C38.3199 1.18195 37.1382 0 35.6803 0H3.5195Z" fill="#4D4D4D"/>
<path fill-rule="evenodd" clip-rule="evenodd" d="M16.5831 7.77086C17.0073 7.77086 17.3631 7.85649 17.796 8.06318V9.15523C17.3859 8.7778 17.0302 8.61983 16.5597 8.61983C15.635 8.61983 14.9079 9.34055 14.9079 10.2542C14.9079 11.2178 15.6125 11.8956 16.6056 11.8956C17.0526 11.8956 17.4017 11.7459 17.796 11.3745V12.4671C17.3476 12.6658 16.9843 12.7444 16.5597 12.7444C15.0584 12.7444 13.8918 11.6598 13.8918 10.261C13.8918 8.87735 15.0894 7.77086 16.5831 7.77086ZM11.9217 7.80095C12.4759 7.80095 12.983 7.97951 13.407 8.32867L12.8911 8.96457C12.6343 8.69356 12.3914 8.57923 12.096 8.57923C11.6711 8.57923 11.3616 8.80699 11.3616 9.1067C11.3616 9.36369 11.5353 9.49972 12.1269 9.70583C13.2484 10.0919 13.5808 10.4343 13.5808 11.1903C13.5808 12.1115 12.862 12.7528 11.8375 12.7528C11.0872 12.7528 10.5418 12.4747 10.0875 11.847L10.7244 11.2695C10.9514 11.6828 11.3302 11.9042 11.8005 11.9042C12.2403 11.9042 12.566 11.6185 12.566 11.233C12.566 11.0331 12.4673 10.8617 12.2704 10.7406C12.1712 10.6832 11.9748 10.5977 11.5888 10.4695C10.6628 10.1557 10.3451 9.82022 10.3451 9.16463C10.3451 8.38583 11.0274 7.80095 11.9217 7.80095ZM23.1884 7.8839H24.2654L25.6134 11.0803L26.9788 7.8839H28.0477L25.8639 12.7648H25.3334L23.1884 7.8839ZM4.11572 7.89119H5.56292C7.1619 7.89119 8.27655 8.86953 8.27655 10.274C8.27655 10.9743 7.93556 11.6514 7.35889 12.1007C6.87371 12.4799 6.32084 12.6501 5.55534 12.6501H4.11572V7.89119ZM8.7302 7.89119H9.71612V12.6501H8.7302V7.89119ZM28.4934 7.89119H31.2895V8.69759H29.4787V9.75383H31.2229V10.5598H29.4787V11.8444H31.2896V12.6501H28.4935V7.89119H28.4934ZM31.9426 7.89119H33.4045C34.5416 7.89119 35.1932 8.40527 35.1932 9.29625C35.1932 10.0249 34.7845 10.503 34.0418 10.6453L35.633 12.6501H34.4205L33.0559 10.7383H32.9273V12.6501H31.9426V7.89119ZM32.9273 8.64076V10.082H33.2154C33.845 10.082 34.1787 9.82459 34.1787 9.34622C34.1787 8.88311 33.845 8.64076 33.231 8.64076H32.9273ZM5.10097 8.69755V11.8444H5.36555C6.00265 11.8444 6.40503 11.7295 6.71483 11.4661C7.05577 11.1803 7.26087 10.7238 7.26087 10.2671C7.26087 9.81115 7.05577 9.3683 6.71483 9.08241C6.38915 8.80497 6.00265 8.69755 5.36555 8.69755H5.10097Z" fill="white"/>
<path fill-rule="evenodd" clip-rule="evenodd" d="M20.8062 7.7381C22.2913 7.7381 23.4952 8.86994 23.4952 10.2681V10.2697C23.4952 11.668 22.2913 12.8013 20.8062 12.8013C19.3211 12.8013 18.1172 11.6679 18.1172 10.2697V10.2681C18.1172 8.86989 19.3211 7.73805 20.8062 7.73805L20.8062 7.7381ZM38.319 13.8413C37.0686 14.7212 27.7071 21.0096 11.499 24.0471H35.6794C37.137 24.0471 38.319 22.8649 38.319 21.4069V13.8411L38.319 13.8413Z" fill="#F47216"/>
</g>
<defs>
<clipPath id="clip0">
<rect x="0.879883" width="37.44" height="24" fill="white"/>
</clipPath>
</defs>
</svg>

<svg width="39" height="24" fill="none" xmlns="http://www.w3.org/2000/svg"><g clip-path="url(#clip0)" fill-rule="evenodd" clip-rule="evenodd"><path d="M3.52 0A2.64 2.64 0 00.88 2.64v18.768a2.64 2.64 0 002.64 2.64h32.16a2.64 2.64 0 002.64-2.64V2.64A2.64 2.64 0 0035.68 0H3.52z" fill="#4D4D4D"/><path d="M16.583 7.77c.424 0 .78.086 1.213.293v1.092c-.41-.377-.766-.535-1.236-.535-.925 0-1.652.72-1.652 1.634 0 .964.705 1.642 1.698 1.642.447 0 .796-.15 1.19-.522v1.093c-.448.199-.812.277-1.236.277-1.502 0-2.668-1.084-2.668-2.483 0-1.384 1.197-2.49 2.691-2.49zm-4.661.031c.554 0 1.061.179 1.485.528l-.516.636c-.257-.271-.5-.386-.795-.386-.425 0-.734.228-.734.528 0 .257.173.393.765.599 1.121.386 1.454.728 1.454 1.484 0 .921-.719 1.563-1.743 1.563-.75 0-1.296-.278-1.75-.906l.636-.577c.227.413.606.634 1.076.634.44 0 .766-.286.766-.671 0-.2-.099-.371-.296-.492-.099-.058-.295-.143-.681-.271-.926-.314-1.244-.65-1.244-1.305 0-.78.682-1.364 1.577-1.364zm11.266.083h1.077l1.348 3.196 1.366-3.196h1.069l-2.184 4.88h-.53l-2.146-4.88zM4.116 7.89h1.447c1.599 0 2.714.979 2.714 2.383 0 .7-.341 1.377-.918 1.827-.485.379-1.038.55-1.804.55h-1.44V7.89zm4.614 0h.986v4.76H8.73V7.89zm19.763 0h2.797v.807h-1.811v1.056h1.744v.806h-1.744v1.284h1.81v.806h-2.796V7.891zm3.45 0h1.461c1.138 0 1.79.514 1.79 1.405 0 .729-.41 1.207-1.152 1.35l1.591 2.004H34.42l-1.364-1.912h-.129v1.912h-.984V7.891zm.984.75v1.441h.288c.63 0 .964-.257.964-.736 0-.463-.334-.705-.948-.705h-.304zm-27.826.057v3.146h.265c.637 0 1.039-.114 1.349-.378a1.59 1.59 0 00.546-1.199 1.56 1.56 0 00-.546-1.185c-.326-.277-.712-.384-1.35-.384h-.264z" fill="#fff"/><path d="M20.806 7.738c1.485 0 2.69 1.132 2.69 2.53v.002c0 1.398-1.205 2.531-2.69 2.531-1.485 0-2.689-1.133-2.689-2.531v-.002c0-1.398 1.204-2.53 2.69-2.53zm17.513 6.103c-1.25.88-10.612 7.169-26.82 10.206h24.18a2.64 2.64 0 002.64-2.64V13.84z" fill="#F47216"/></g><defs><clipPath id="clip0"><path fill="#fff" d="M.88 0h37.44v24H.88z"/></clipPath></defs></svg>
